X: 35943
T: Sarah
R: reel
M: 4/4
K: Eminor
|:E3 F GFGA|BE ~E2 BAB=c|dA ~A2 defg|agfg ~e2 dB|
GBEF GFGA|BE ~E2 BAB=c|dA ~A2 B2 AF|GAFG E2 ED:|
|:G3 B d2 eg|fd ~d2 faba|g3 f gedg|eBdB ABBA|
G3 A Bdge|fd ~d2 a2 ga|bg ~g2 agfg|effe b2 z2:|

